img/svg/profile-icons/phone-ico.svg

<svg width="22" height="22" viewBox="0 0 22 22" fill="none" xmlns="http://www.w3.org/2000/svg">
<g clip-path="url(#clip0)">
<path d="M21.9978 17.7268C21.9672 16.8758 21.6127 16.0817 20.9997 15.4906C19.7996 14.3334 18.794 13.6653 17.8352 13.3882C16.5141 13.0064 15.2904 13.3536 14.1983 14.4202C14.1967 14.4218 14.195 14.4234 14.1934 14.425L13.0315 15.5782C12.3054 15.1689 10.8934 14.2702 9.36795 12.7447L9.25486 12.6317C7.72912 11.106 6.83043 9.69377 6.4215 8.96846L7.57478 7.80654C7.57641 7.80491 7.57805 7.80327 7.57968 7.8016C8.64621 6.70959 8.99339 5.48593 8.61162 4.16468C8.33451 3.20592 7.66647 2.20037 6.50915 1.0002C5.91816 0.387342 5.12406 0.0328494 4.27306 0.00216976C3.42155 -0.0285529 2.60446 0.267846 1.97075 0.836666L1.94609 0.858838C1.93466 0.869107 1.92349 0.879721 1.91257 0.890592C0.651053 2.15211 -0.0102357 3.91817 0.000119779 5.9979C0.0177799 9.53088 1.95949 13.5711 5.19414 16.8057C5.80408 17.4157 6.4973 18.0193 7.25449 18.5999C7.63111 18.8887 8.17054 18.8175 8.45933 18.4408C8.74817 18.0642 8.67693 17.5247 8.30026 17.2359C7.60267 16.701 6.96651 16.1474 6.40947 15.5905C3.48776 12.6688 1.73425 9.07962 1.71883 5.98935C1.71088 4.38765 2.19269 3.05076 3.11235 2.12152L3.11892 2.11559C3.74356 1.55489 4.68926 1.58901 5.272 2.19328C7.49688 4.50061 7.33579 5.58991 6.35266 6.59804L4.75964 8.20301C4.50982 8.45472 4.44025 8.83405 4.5845 9.15804C4.62493 9.24887 5.60329 11.4108 8.03983 13.8473L8.15297 13.9603C10.5892 16.3966 12.7511 17.3749 12.842 17.4153C13.1659 17.5596 13.5453 17.49 13.797 17.2402L15.402 15.6471C16.4102 14.664 17.4995 14.503 19.8067 16.7278C20.411 17.3105 20.4451 18.2562 19.8846 18.8808L19.8785 18.8875C18.9568 19.7997 17.6342 20.2811 16.0499 20.2811C16.0368 20.2811 16.0238 20.2811 16.0107 20.2811C14.7443 20.2747 13.2779 19.9276 11.7701 19.2772C11.3344 19.0892 10.8286 19.2901 10.6407 19.7259C10.4527 20.1618 10.6536 20.6674 11.0894 20.8554C12.8323 21.6072 14.4851 21.9922 16.0021 21.9998C16.0182 21.9999 16.0342 21.9999 16.0503 21.9999C18.1091 21.9999 19.8577 21.3391 21.1094 20.0874C21.1203 20.0764 21.1309 20.0653 21.1411 20.0538L21.1634 20.029C21.7322 19.3954 22.0286 18.5778 21.9978 17.7268Z" fill="#4C51CC"/>
</g>
<defs>
<clipPath id="clip0">
<rect width="22" height="22" fill="white"/>
</clipPath>
</defs>
</svg>

<svg width="22" height="22" fill="none" xmlns="http://www.w3.org/2000/svg"><g clip-path="url(#clip0)"><path d="M21.998 17.727A3.254 3.254 0 0021 15.49c-1.2-1.158-2.206-1.826-3.165-2.103-1.32-.382-2.545-.034-3.637 1.032l-.005.005-1.162 1.153c-.726-.41-2.138-1.308-3.663-2.833l-.113-.113C7.729 11.106 6.83 9.694 6.42 8.968l1.154-1.161.005-.005C8.646 6.71 8.993 5.486 8.612 4.165 8.335 3.205 7.666 2.2 6.509 1A3.254 3.254 0 004.273.002a3.253 3.253 0 00-2.302.835l-.025.022a.902.902 0 00-.033.032C.65 2.152-.01 3.918 0 5.998.018 9.53 1.96 13.57 5.194 16.806a20.94 20.94 0 002.06 1.794.86.86 0 101.046-1.364 19.243 19.243 0 01-1.89-1.646c-2.922-2.921-4.676-6.51-4.691-9.6-.008-1.602.474-2.94 1.393-3.868l.007-.006a1.546 1.546 0 012.153.077c2.225 2.308 2.064 3.397 1.08 4.405L4.76 8.203a.86.86 0 00-.175.955c.04.09 1.018 2.253 3.455 4.69l.113.112c2.436 2.437 4.598 3.415 4.689 3.455a.86.86 0 00.955-.175l1.605-1.593c1.008-.983 2.098-1.144 4.405 1.08.604.584.638 1.53.078 2.154l-.007.006c-.921.913-2.244 1.394-3.828 1.394h-.04c-1.266-.006-2.732-.353-4.24-1.004a.86.86 0 10-.68 1.578c1.742.752 3.395 1.137 4.912 1.145h.048c2.06 0 3.808-.66 5.06-1.913a.835.835 0 00.031-.033l.022-.025a3.253 3.253 0 00.835-2.302z" fill="#4C51CC"/></g><defs><clipPath id="clip0"><path fill="#fff" d="M0 0h22v22H0z"/></clipPath></defs></svg>
